X:2
T:Londonderry air
C:trad. Irish
M:4/4
K:G
z3FG2A2|"G"B6BA|"Em"B3ed2B2|"C"A3GE4|"Am"z3GB2c2|"G"d7e|
"Em"d2B2A2G2|"Am"A6z2|"D"z3FG2A2|"G"B6BA|"Em"B3ed3B|"C"A3GE4|"Am"z3FG2A2|
"G"B2e2"Em"d3B|"C"A3G"D"E2F2|"G"G4||zd2e2f2|"G"g7f|"C"f3ed2e2|
"G"g3BG4|zd2e2f2|"Em"g7f|"C"f3ed2B2|"Am"A6z2|"D"z3dd2d2|"G"b6a2|
"C"a3ge2g2|"G"d3BG4|"Em"z3FG2A2|"G"B2e2"Em"d3B|"C"A3G"D"E2F2|"G"G8|]
